X: 309
T: Wedding Freilakhs
R: freilach
Q: 1/4=100
B: German Goldenshteyn "Shpilt klezmorimlach klingen zoln di gesalach" New York 2003 v.3 #9
Z: 2012 John Chambers <jc:trillian.mit.edu>
M: 2/4
L: 1/16
K: Am
%%slurgraces 1
|:\
(EA)AA (cB)(3(cBA) | (Bc)^de (dc)BA | (g^f)eg (fe)^df | (^de)^fe (dc)BA | (EA)AA (cB)(3(cBA) |
(Bc)^de (dc)BA | EEEE (cB)(3(cBA) | (^GA)Bc A4 :| {^g}a8 | {^g}a8 | {^g}a4 {g}a4 | {^g}a4 {g}a4 |
|:\
(ag)^fe (^de)fg | (ag)^fe (^dc)BA | (ag)^fe (^de)fg | (aA)ce a4 |
(ag)^fe (^de)fg | (ag)^fe (^dc)BA | (Bc)^de (dc)BA | (^GA)Bc A2z2 :|
